; generated by PrusaSlicer 2.9.4 on 2025-12-18 at 23:15:02 UTC


;
;
; 

; external perimeters extrusion width = 0.45mm
; perimeters extrusion width = 0.45mm
; infill extrusion width = 0.45mm
; solid infill extrusion width = 0.45mm
; top infill extrusion width = 0.40mm
; first layer extrusion width = 0.42mm

M73 P0 R6
M73 Q0 S6
M201 X1000 Y1000 Z200 E5000 ; sets maximum accelerations, mm/sec^2
M203 X200 Y200 Z12 E120 ; sets maximum feedrates, mm / sec
M204 S1250 T1250 ; sets acceleration (S) and retract acceleration (R), mm/sec^2
M205 X8.00 Y8.00 Z0.40 E4.50 ; sets the jerk limits, mm/sec
M205 S0 T0 ; sets the minimum extruding and travel feed rate, mm/sec

; printing object ButtonPress.STL id:0 copy 0
; stop printing object ButtonPress.STL id:0 copy 0

;TYPE:Custom
M862.3 P "MK3S" ; printer model check
M862.1 P0.4 ; nozzle diameter check
M115 U3.14.1 ; tell printer latest fw version
G90 ; use absolute coordinates
M83 ; extruder relative mode
M104 S215 ; set extruder temp
M140 S60 ; set bed temp
M190 S60 ; wait for bed temp
M109 S215 ; wait for extruder temp
G28 W ; home all without mesh bed level
G80 X114.347 Y94.3466 W21.3057 H21.3068 ; mesh bed levelling

G1 Z0.2 F720
G1 Y-3 F1000 ; go outside print area
G92 E0
G1 X60 E9 F1000 ; intro line
G1 X100 E12.5 F1000 ; intro line

G92 E0
M221 S95

; Don't change E values below. Excessive value can damage the printer.

M907 E538 ; set extruder motor current
G21 ; set units to millimeters
G90 ; use absolute coordinates
M83 ; use relative distances for extrusion

M900 K0.05 ; Filament gcode LA 1.5
M900 K30 ; Filament gcode LA 1.0




M107
;LAYER_CHANGE
;Z:0.2
;HEIGHT:0.2
G1 E-.8 F2100
M73 P1 R6
M73 Q1 S6
G1 Z.6 F720
G1 X116.84 Y98.444 F10800
G1 Z.2 F720
G1 E.8 F2100
M204 S800
;TYPE:Skirt/Brim
;WIDTH:0.42
G1 F1200
G1 X117.938 Y97.278 E.05022
G1 X119.575 Y96.048 E.0642
G1 X121.212 Y95.242 E.05721
G1 X123.402 Y94.655 E.07109
G1 X125.446 Y94.545 E.06418
M73 Q2 S6
G1 X127.193 Y94.77 E.05523
G1 X128.987 Y95.324 E.05887
G1 X130.614 Y96.169 E.05748
M73 P2 R6
G1 X131.897 Y97.127 E.0502
G1 X132.722 Y97.938 E.03627
G1 X133.951 Y99.575 E.06418
G1 X134.758 Y101.212 E.05722
G1 X135.267 Y102.964 E.0572
G1 X135.464 Y105.136 E.06838
G1 X135.267 Y107.036 E.05989
G1 X134.672 Y108.995 E.06419
G1 X133.831 Y110.614 E.0572
G1 X132.873 Y111.897 E.0502
G1 X132.062 Y112.722 E.03627
G1 X130.425 Y113.951 E.06418
G1 X128.788 Y114.758 E.05722
G1 X127.036 Y115.267 E.0572
G1 X124.777 Y115.465 E.0711
G1 X122.964 Y115.267 E.05718
G1 X121.005 Y114.672 E.06419
G1 X119.96 Y114.174 E.0363
G1 X118.621 Y113.296 E.0502
G1 X117.278 Y112.062 E.05719
G1 X116.049 Y110.425 E.06418
G1 X115.242 Y108.788 E.05722
G1 X114.733 Y107.036 E.0572
G1 X114.536 Y104.864 E.06838
G1 X114.733 Y102.963 E.05992
G1 X115.328 Y101.005 E.06416
G1 X116.169 Y99.386 E.0572
G1 X116.805 Y98.493 E.03437
M204 S1000
G1 X117.09 Y98.755 F10800
M204 S800
G1 F1200
G1 X118.204 Y97.544 E.05159
G1 X119.763 Y96.375 E.0611
G1 X121.341 Y95.597 E.05516
G1 X123.468 Y95.027 E.06904
G1 X125.413 Y94.921 E.06107
G1 X127.098 Y95.135 E.05326
G1 X128.828 Y95.666 E.05674
G1 X130.398 Y96.478 E.05542
G1 X131.655 Y97.415 E.04916
G1 X132.456 Y98.204 E.03525
G1 X133.625 Y99.763 E.0611
G1 X134.403 Y101.341 E.05516
M73 Q3 S6
G1 X134.896 Y103.029 E.05514
G1 X135.087 Y105.139 E.06643
G1 X134.896 Y106.971 E.05775
G1 X134.33 Y108.836 E.06111
M73 P3 R6
G1 X133.522 Y110.398 E.05514
G1 X132.585 Y111.655 E.04916
G1 X131.796 Y112.456 E.03525
G1 X130.237 Y113.625 E.0611
G1 X128.659 Y114.403 E.05516
G1 X126.971 Y114.896 E.05514
G1 X124.777 Y115.088 E.06905
G1 X123.029 Y114.896 E.05514
G1 X121.164 Y114.33 E.06111
G1 X120.149 Y113.848 E.03523
G1 X118.838 Y112.987 E.04918
G1 X117.544 Y111.796 E.05514
G1 X116.375 Y110.237 E.0611
G1 X115.597 Y108.659 E.05516
G1 X115.104 Y106.971 E.05514
G1 X114.913 Y104.861 E.06643
G1 X115.104 Y103.029 E.05775
G1 X115.67 Y101.164 E.06111
G1 X116.152 Y100.149 E.03523
G1 X117.013 Y98.838 E.04918
G1 X117.049 Y98.799 E.00166
M204 S1000
;WIPE_START
G1 F8640
G1 X117.09 Y98.755 E-.01389
G1 X118.204 Y97.544 E-.37994
G1 X119.612 Y96.489 E-.40617
;WIPE_END
G1 Z.6 F720
G1 X119.079 Y100.257 F10800
G1 Z.2 F720
G1 E.8 F2100
M204 S800
G1 F1200
G1 X119.279 Y99.978 E.01076
G1 X120.356 Y98.968 E.04629
G1 X121.48 Y98.25 E.04182
G1 X122.7 Y97.743 E.04142
G1 X123.949 Y97.46 E.04015
G1 X124.971 Y97.388 E.03212
G1 X126.011 Y97.455 E.03268
G1 X127.446 Y97.792 E.04622
G1 X128.806 Y98.408 E.04681
G1 X130.017 Y99.275 E.0467
G1 X131.031 Y100.355 E.04645
G1 X131.747 Y101.475 E.04168
G1 X132.243 Y102.655 E.04013
G1 X132.492 Y103.65 E.03216
G1 X132.605 Y104.679 E.03246
G1 X132.548 Y105.986 E.04102
G1 X132.216 Y107.423 E.04624
G1 X131.607 Y108.781 E.04666
G1 X130.744 Y109.995 E.0467
G1 X129.648 Y111.03 E.04727
G1 X128.559 Y111.73 E.04059
G1 X127.592 Y112.158 E.03316
M73 Q4 S6
G1 X126.596 Y112.444 E.03249
G1 X125.322 Y112.606 E.04027
G1 X123.994 Y112.546 E.04168
G1 X122.533 Y112.201 E.04707
G1 X121.182 Y111.585 E.04656
M73 P4 R6
G1 X119.977 Y110.719 E.04653
G1 X118.971 Y109.648 E.04607
G1 X118.27 Y108.559 E.04061
G1 X117.842 Y107.592 E.03316
G1 X117.556 Y106.596 E.03249
G1 X117.394 Y105.321 E.0403
G1 X117.454 Y103.993 E.04168
G1 X117.8 Y102.53 E.04714
G1 X118.415 Y101.182 E.04646
G1 X119.044 Y100.306 E.03381
M204 S1000
G1 X119.349 Y100.524 F10800
M204 S800
G1 F1200
G1 X119.552 Y100.24 E.01095
G1 X120.574 Y99.276 E.04405
G1 X121.641 Y98.592 E.03974
G1 X122.8 Y98.107 E.03939
G1 X123.99 Y97.835 E.03827
G1 X124.985 Y97.765 E.03127
G1 X125.97 Y97.831 E.03095
G1 X127.341 Y98.154 E.04416
G1 X128.602 Y98.725 E.0434
G1 X129.756 Y99.548 E.04444
G1 X130.724 Y100.573 E.0442
G1 X131.406 Y101.637 E.03963
G1 X131.881 Y102.761 E.03826
G1 X132.123 Y103.728 E.03125
G1 X132.228 Y104.705 E.03081
G1 X132.173 Y105.951 E.03911
G1 X131.853 Y107.319 E.04405
G1 X131.271 Y108.608 E.04434
G1 X130.448 Y109.76 E.04439
G1 X129.429 Y110.722 E.04394
G1 X128.392 Y111.392 E.03871
G1 X127.475 Y111.799 E.03146
G1 X126.506 Y112.078 E.03162
G1 X125.291 Y112.23 E.03839
G1 X124.03 Y112.17 E.03958
G1 X122.672 Y111.85 E.04375
G1 X121.386 Y111.268 E.04426
G1 X120.238 Y110.447 E.04425
G1 X119.278 Y109.429 E.04387
G1 X118.608 Y108.392 E.03871
G1 X118.201 Y107.475 E.03146
G1 X117.922 Y106.506 E.03162
G1 X117.77 Y105.291 E.03839
G1 X117.83 Y104.028 E.03965
G1 X118.151 Y102.669 E.04378
G1 X118.732 Y101.386 E.04416
G1 X119.314 Y100.572 E.03137
M204 S1000
G1 X119.618 Y100.79 F10800
M204 S800
G1 F1200
G1 X119.824 Y100.501 E.01113
G1 X120.794 Y99.583 E.04187
G1 X121.803 Y98.933 E.03763
G1 X122.901 Y98.471 E.03735
G1 X124.032 Y98.21 E.03639
G1 X124.973 Y98.142 E.02958
G1 X125.929 Y98.206 E.03004
G1 X127.236 Y98.517 E.04212
G1 X128.429 Y99.061 E.04111
G1 X129.495 Y99.821 E.04105
G1 X130.417 Y100.793 E.04201
G1 X131.065 Y101.799 E.03752
M73 Q5 S6
G1 X131.519 Y102.868 E.03642
G1 X131.749 Y103.782 E.02955
G1 X131.852 Y104.731 E.02993
G1 X131.797 Y105.916 E.03719
G1 X131.491 Y107.214 E.04181
M73 P5 R6
G1 X130.953 Y108.405 E.04098
G1 X130.175 Y109.5 E.04212
G1 X129.209 Y110.416 E.04174
G1 X128.226 Y111.053 E.03673
G1 X127.334 Y111.449 E.0306
G1 X126.417 Y111.711 E.0299
G1 X125.261 Y111.853 E.03652
G1 X124.066 Y111.795 E.03751
G1 X122.778 Y111.488 E.04152
G1 X121.559 Y110.932 E.04201
G1 X120.499 Y110.175 E.04084
G1 X119.584 Y109.209 E.04172
G1 X118.947 Y108.226 E.03673
G1 X118.551 Y107.334 E.0306
G1 X118.289 Y106.417 E.0299
G1 X118.147 Y105.261 E.03652
G1 X118.205 Y104.065 E.03754
G1 X118.513 Y102.775 E.04158
G1 X119.068 Y101.559 E.04191
G1 X119.583 Y100.839 E.02776
M204 S1000
G1 X119.888 Y101.056 F10800
M204 S800
G1 F1200
G1 X120.098 Y100.761 E.01135
G1 X121.014 Y99.889 E.03965
G1 X121.965 Y99.273 E.03553
G1 X123.003 Y98.834 E.03534
G1 X124.074 Y98.585 E.03448
G1 X124.986 Y98.519 E.02867
G1 X125.887 Y98.581 E.02832
G1 X127.097 Y98.868 E.03899
G1 X128.226 Y99.379 E.03886
G1 X129.235 Y100.094 E.03877
G1 X130.11 Y101.013 E.03979
G1 X130.725 Y101.962 E.03546
G1 X131.157 Y102.974 E.0345
G1 X131.38 Y103.861 E.02868
G1 X131.475 Y104.756 E.02822
G1 X131.421 Y105.88 E.03528
G1 X131.128 Y107.109 E.03961
G1 X130.617 Y108.232 E.03868
G1 X129.902 Y109.239 E.03872
G1 X128.988 Y110.109 E.03956
G1 X128.058 Y110.715 E.0348
G1 X127.218 Y111.09 E.02884
G1 X126.328 Y111.344 E.02902
G1 X125.233 Y111.477 E.03459
G1 X124.103 Y111.419 E.03548
G1 X122.884 Y111.126 E.03931
G1 X121.763 Y110.614 E.03864
G1 X120.76 Y109.901 E.03858
G1 X119.891 Y108.988 E.03952
G1 X119.285 Y108.058 E.0348
G1 X118.91 Y107.218 E.02884
G1 X118.656 Y106.328 E.02902
G1 X118.523 Y105.233 E.03459
G1 X118.581 Y104.102 E.03551
G1 X118.876 Y102.881 E.03939
G1 X119.386 Y101.763 E.03853
G1 X119.853 Y101.105 E.0253
M204 S1000
G1 X120.159 Y101.323 F10800
M204 S800
G1 F1200
G1 X120.394 Y100.995 E.01265
G1 X121.234 Y100.196 E.03635
G1 X122.129 Y99.614 E.03347
G1 X123.105 Y99.198 E.03327
G1 X124.117 Y98.96 E.0326
G1 X124.974 Y98.896 E.02695
G1 X125.846 Y98.956 E.02741
M73 Q6 S6
G1 X126.991 Y99.23 E.03691
G1 X128.053 Y99.714 E.03659
G1 X129.001 Y100.391 E.03653
G1 X129.804 Y101.233 E.03648
G1 X130.385 Y102.126 E.0334
M73 P6 R6
G1 X130.795 Y103.082 E.03262
G1 X131.007 Y103.915 E.02695
G1 X131.099 Y104.781 E.02731
G1 X131.045 Y105.843 E.03334
G1 X130.777 Y106.97 E.03632
G1 X130.299 Y108.03 E.03646
G1 X129.628 Y108.98 E.03647
G1 X128.767 Y109.803 E.03735
G1 X127.89 Y110.377 E.03286
G1 X127.076 Y110.74 E.02795
G1 X126.24 Y110.977 E.02725
G1 X125.205 Y111.101 E.03268
G1 X124.141 Y111.043 E.03341
G1 X122.991 Y110.764 E.0371
G1 X121.937 Y110.279 E.03638
G1 X120.994 Y109.605 E.03634
G1 X120.197 Y108.767 E.03626
G1 X119.623 Y107.89 E.03286
G1 X119.26 Y107.076 E.02795
G1 X119.023 Y106.24 E.02725
G1 X118.899 Y105.205 E.03268
G1 X118.957 Y104.14 E.03344
G1 X119.238 Y102.988 E.03718
G1 X119.72 Y101.937 E.03625
G1 X120.124 Y101.372 E.02178
M204 S1000
G1 X120.43 Y101.589 F10800
M204 S800
G1 F1200
G1 X120.668 Y101.255 E.01286
G1 X121.456 Y100.502 E.03417
G1 X122.293 Y99.953 E.03139
G1 X123.209 Y99.56 E.03125
G1 X124.16 Y99.335 E.03064
G1 X124.988 Y99.273 E.02603
G1 X125.803 Y99.331 E.02562
G1 X126.852 Y99.581 E.03381
G1 X127.85 Y100.033 E.03435
G1 X128.742 Y100.665 E.03428
G1 X129.498 Y101.455 E.03428
G1 X130.046 Y102.291 E.03134
G1 X130.434 Y103.189 E.03067
G1 X130.638 Y103.994 E.02604
G1 X130.722 Y104.805 E.02556
G1 X130.67 Y105.806 E.03143
G1 X130.415 Y106.864 E.03412
G1 X129.963 Y107.857 E.03421
G1 X129.331 Y108.746 E.0342
G1 X128.545 Y109.498 E.03411
G1 X127.722 Y110.039 E.03088
G1 X126.96 Y110.381 E.02619
G1 X126.152 Y110.61 E.02633
G1 X125.177 Y110.724 E.03078
G1 X124.18 Y110.668 E.03131
G1 X123.131 Y110.413 E.03385
G1 X122.14 Y109.961 E.03415
G1 X121.254 Y109.331 E.03409
G1 X120.502 Y108.545 E.03411
G1 X119.961 Y107.722 E.03088
G1 X119.619 Y106.96 E.02619
G1 X119.39 Y106.152 E.02633
G1 X119.276 Y105.177 E.03078
G1 X119.332 Y104.179 E.03134
G1 X119.588 Y103.128 E.03392
G1 X120.039 Y102.14 E.03405
G1 X120.395 Y101.638 E.0193
M204 S1000
G1 X120.702 Y101.855 F10800
M204 S800
G1 F1200
G1 X120.942 Y101.514 E.01307
G1 X121.678 Y100.807 E.032
G1 X122.458 Y100.293 E.02929
G1 X123.313 Y99.923 E.02921
G1 X124.204 Y99.709 E.02873
G1 X124.976 Y99.65 E.02428
G1 X125.761 Y99.706 E.02468
G1 X126.746 Y99.944 E.03177
G1 X127.648 Y100.352 E.03104
G1 X128.483 Y100.94 E.03202
G1 X129.193 Y101.677 E.03209
G1 X129.707 Y102.457 E.02929
M73 Q7 S6
G1 X130.072 Y103.298 E.02875
G1 X130.264 Y104.047 E.02424
G1 X130.346 Y104.829 E.02465
G1 X130.294 Y105.768 E.02949
G1 X130.064 Y106.725 E.03086
G1 X129.644 Y107.655 E.032
M73 P7 R6
G1 X129.057 Y108.487 E.03193
G1 X128.322 Y109.193 E.03195
G1 X127.553 Y109.702 E.02891
G1 X126.819 Y110.031 E.02522
G1 X126.065 Y110.243 E.02456
G1 X125.151 Y110.348 E.02885
G1 X124.22 Y110.293 E.02924
G1 X123.239 Y110.051 E.03168
G1 X122.314 Y109.626 E.03192
G1 X121.513 Y109.057 E.03081
G1 X120.807 Y108.323 E.03193
G1 X120.298 Y107.553 E.02894
G1 X119.969 Y106.819 E.02522
G1 X119.757 Y106.065 E.02456
G1 X119.652 Y105.151 E.02885
G1 X119.707 Y104.219 E.02927
G1 X119.95 Y103.236 E.03175
G1 X120.357 Y102.343 E.03077
G1 X120.667 Y101.904 E.01685
M204 S1000
G1 X120.973 Y102.121 F10800
M204 S800
G1 F1200
G1 X121.239 Y101.747 E.01439
G1 X121.9 Y101.111 E.02876
G1 X122.624 Y100.632 E.02722
G1 X123.418 Y100.286 E.02716
G1 X124.249 Y100.084 E.02681
G1 X124.99 Y100.027 E.0233
G1 X125.717 Y100.081 E.02286
G1 X126.639 Y100.306 E.02976
G1 X127.474 Y100.687 E.02878
G1 X128.25 Y101.237 E.02982
G1 X128.888 Y101.9 E.02885
G1 X129.368 Y102.623 E.02721
G1 X129.711 Y103.406 E.0268
G1 X129.895 Y104.127 E.02333
G1 X129.969 Y104.852 E.02285
G1 X129.919 Y105.728 E.02751
G1 X129.702 Y106.618 E.02872
G1 X129.309 Y107.482 E.02976
G1 X128.76 Y108.254 E.0297
G1 X128.1 Y108.889 E.02872
G1 X127.384 Y109.364 E.02694
G1 X126.703 Y109.672 E.02343
G1 X125.978 Y109.876 E.02361
G1 X125.126 Y109.971 E.02688
G1 X124.261 Y109.917 E.02717
G1 X123.347 Y109.69 E.02953
G1 X122.517 Y109.308 E.02865
G1 X121.771 Y108.782 E.02862
G1 X121.111 Y108.099 E.02978
G1 X120.636 Y107.384 E.02691
G1 X120.328 Y106.703 E.02343
G1 X120.124 Y105.978 E.02361
G1 X120.029 Y105.126 E.02688
G1 X120.083 Y104.26 E.02721
G1 X120.311 Y103.345 E.02957
G1 X120.692 Y102.517 E.02858
G1 X120.938 Y102.17 E.01334
M204 S1000
G1 X121.243 Y102.387 F10800
M204 S800
G1 F1200
G1 X121.514 Y102.006 E.01466
G1 X122.124 Y101.415 E.02663
G1 X122.792 Y100.97 E.02517
G1 X123.524 Y100.648 E.02507
G1 X124.294 Y100.459 E.02486
G1 X124.977 Y100.404 E.02148
G1 X125.674 Y100.456 E.02191
G1 X126.5 Y100.656 E.02665
G1 X127.273 Y101.006 E.02661
G1 X127.992 Y101.512 E.02757
G1 X128.585 Y102.124 E.02672
G1 X129.03 Y102.791 E.02514
G1 X129.35 Y103.516 E.02485
G1 X129.522 Y104.179 E.02148
G1 X129.592 Y104.875 E.02193
G1 X129.544 Y105.688 E.02554
G1 X129.34 Y106.51 E.02656
G1 X128.99 Y107.279 E.02649
G1 X128.485 Y107.996 E.0275
G1 X127.875 Y108.585 E.02659
G1 X127.214 Y109.027 E.02493
G1 X126.561 Y109.322 E.02247
G1 X125.892 Y109.508 E.02177
G1 X125.102 Y109.594 E.02492
G1 X124.303 Y109.542 E.02511
G1 X123.457 Y109.329 E.02735
G1 X122.692 Y108.974 E.02644
G1 X122.004 Y108.485 E.02647
G1 X121.415 Y107.875 E.02659
G1 X120.973 Y107.214 E.02493
M73 Q8 S6
G1 X120.678 Y106.561 E.02247
G1 X120.492 Y105.892 E.02177
G1 X120.406 Y105.102 E.02492
G1 X120.458 Y104.302 E.02514
G1 X120.672 Y103.455 E.02739
G1 X121.026 Y102.692 E.02637
M73 P8 R6
G1 X121.208 Y102.436 E.00985
M204 S1000
G1 X121.515 Y102.652 F10800
M204 S800
G1 F1200
G1 X121.79 Y102.263 E.01494
G1 X122.35 Y101.718 E.0245
G1 X122.96 Y101.308 E.02304
G1 X123.632 Y101.01 E.02305
G1 X124.34 Y100.833 E.02288
G1 X124.992 Y100.781 E.02051
G1 X125.629 Y100.83 E.02003
G1 X126.392 Y101.018 E.02464
G1 X127.1 Y101.341 E.0244
G1 X127.735 Y101.788 E.02435
G1 X128.282 Y102.349 E.02457
G1 X128.692 Y102.96 E.02307
G1 X128.989 Y103.626 E.02286
G1 X129.153 Y104.259 E.0205
G1 X129.216 Y104.896 E.02007
G1 X129.168 Y105.647 E.0236
G1 X128.979 Y106.401 E.02437
G1 X128.655 Y107.106 E.02433
G1 X128.209 Y107.738 E.02425
G1 X127.65 Y108.282 E.02446
G1 X127.043 Y108.691 E.02295
G1 X126.445 Y108.963 E.0206
G1 X125.806 Y109.141 E.0208
G1 X125.079 Y109.218 E.02292
G1 X124.346 Y109.167 E.02304
G1 X123.599 Y108.979 E.02415
G1 X122.894 Y108.655 E.02433
G1 X122.262 Y108.209 E.02425
G1 X121.718 Y107.65 E.02446
G1 X121.309 Y107.043 E.02295
G1 X121.037 Y106.445 E.0206
G1 X120.859 Y105.806 E.0208
G1 X120.782 Y105.079 E.02292
G1 X120.833 Y104.345 E.02307
G1 X121.022 Y103.596 E.02422
G1 X121.345 Y102.894 E.02423
G1 X121.481 Y102.701 E.0074
M204 S1000
G1 X121.789 Y102.917 F10800
M204 S800
G1 F1200
G1 X122.067 Y102.52 E.0152
G1 X122.576 Y102.02 E.02237
G1 X123.13 Y101.645 E.02098
G1 X123.741 Y101.371 E.021
G1 X124.387 Y101.208 E.02089
G1 X125.585 Y101.205 E.03756
G1 X126.253 Y101.369 E.02157
G1 X126.899 Y101.661 E.02223
G1 X127.478 Y102.065 E.02214
G1 X127.979 Y102.575 E.02242
G1 X128.355 Y103.13 E.02102
G1 X128.628 Y103.738 E.0209
G1 X128.839 Y104.917 E.03755
G1 X128.793 Y105.604 E.02159
G1 X128.618 Y106.29 E.0222
G1 X128.321 Y106.93 E.02212
G1 X127.912 Y107.505 E.02212
G1 X127.425 Y107.979 E.02131
G1 X126.872 Y108.354 E.02095
G1 X125.722 Y108.773 E.03838
G1 X125.058 Y108.841 E.02093
