; generated by PrusaSlicer 2.9.4 on 2026-01-09 at 10:39:01 UTC


;
;
; 

; external perimeters extrusion width = 0.45mm
; perimeters extrusion width = 0.45mm
; infill extrusion width = 0.45mm
; solid infill extrusion width = 0.45mm
; top infill extrusion width = 0.40mm
; first layer extrusion width = 0.42mm

M73 P0 R4
M73 Q0 S4
M201 X1000 Y1000 Z200 E5000 ; sets maximum accelerations, mm/sec^2
M203 X200 Y200 Z12 E120 ; sets maximum feedrates, mm / sec
M204 S1250 T1250 ; sets acceleration (S) and retract acceleration (R), mm/sec^2
M205 X8.00 Y8.00 Z0.40 E4.50 ; sets the jerk limits, mm/sec
M205 S0 T0 ; sets the minimum extruding and travel feed rate, mm/sec

; printing object ButtonPress.STL id:0 copy 0
; stop printing object ButtonPress.STL id:0 copy 0

;TYPE:Custom
M862.3 P "MK3S" ; printer model check
M862.1 P0.4 ; nozzle diameter check
M115 U3.14.1 ; tell printer latest fw version
G90 ; use absolute coordinates
M83 ; extruder relative mode
M104 S215 ; set extruder temp
M140 S60 ; set bed temp
M190 S60 ; wait for bed temp
M109 S215 ; wait for extruder temp
G28 W ; home all without mesh bed level
G80 X118.496 Y98.494 W13.008 H13.0049 ; mesh bed levelling

G1 Z0.2 F720
G1 Y-3 F1000 ; go outside print area
G92 E0
G1 X60 E9 F1000 ; intro line
G1 X100 E12.5 F1000 ; intro line
M73 P1 R3
M73 Q1 S3

G92 E0
M221 S95

; Don't change E values below. Excessive value can damage the printer.

M907 E538 ; set extruder motor current
G21 ; set units to millimeters
G90 ; use absolute coordinates
M83 ; use relative distances for extrusion

M900 K0.05 ; Filament gcode LA 1.5
M900 K30 ; Filament gcode LA 1.0




M107
;LAYER_CHANGE
;Z:0.2
;HEIGHT:0.2
G1 E-.8 F2100
M73 P2 R3
M73 Q2 S3
G1 Z.6 F720
G1 X120.625 Y100.445 F10800
G1 Z.2 F720
M73 Q3 S3
G1 E.8 F2100
M204 S800
;TYPE:Skirt/Brim
;WIDTH:0.42
G1 F1153
G1 X121.674 Y99.632 E.04161
G1 X122.519 Y99.192 E.02987
M73 P3 R3
G1 X123.864 Y98.787 E.04404
G1 X125.168 Y98.684 E.04101
G1 X126.136 Y98.787 E.03052
G1 X127.481 Y99.192 E.04404
G1 X128.3 Y99.615 E.0289
G1 X129.375 Y100.445 E.04258
G1 X129.992 Y101.131 E.02893
G1 X130.723 Y102.33 E.04403
G1 X131.162 Y103.615 E.04258
G1 X131.316 Y105.012 E.04407
G1 X131.167 Y106.362 E.04259
G1 X130.903 Y107.245 E.0289
G1 X130.261 Y108.494 E.04403
G1 X129.392 Y109.538 E.04259
G1 X128.28 Y110.397 E.04406
G1 X127.05 Y110.974 E.0426
G1 X126.159 Y111.208 E.02888
G1 X124.758 Y111.311 E.04405
G1 X123.414 Y111.113 E.0426
G1 X122.541 Y110.817 E.0289
G1 X121.316 Y110.13 E.04404
G1 X120.304 Y109.223 E.04261
G1 X119.739 Y108.494 E.02892
G1 X119.097 Y107.245 E.04403
G1 X118.833 Y106.362 E.0289
G1 X118.684 Y105.012 E.04259
G1 X118.838 Y103.615 E.04407
G1 X119.105 Y102.733 E.02889
G1 X119.726 Y101.525 E.04259
G1 X120.587 Y100.491 E.04219
M204 S1000
G1 X120.873 Y100.73 F10800
M204 S800
G1 F1153
G1 X120.877 Y100.726 E.00018
G1 X121.882 Y99.947 E.03987
G1 X122.679 Y99.533 E.02816
M73 Q4 S3
G1 X123.919 Y99.16 E.0406
G1 X125.154 Y99.061 E.03885
G1 X126.081 Y99.16 E.02923
G1 X127.321 Y99.533 E.0406
G1 X128.092 Y99.93 E.02719
G1 X129.123 Y100.726 E.04084
M73 P4 R3
G1 X129.952 Y101.721 E.04061
G1 X130.535 Y102.852 E.0399
G1 X130.797 Y103.711 E.02816
G1 X130.939 Y104.998 E.0406
G1 X130.796 Y106.293 E.04085
G1 X130.546 Y107.123 E.02718
G1 X129.954 Y108.275 E.04061
G1 X129.12 Y109.277 E.04088
G1 X128.454 Y109.831 E.02716
G1 X127.325 Y110.465 E.0406
G1 X126.077 Y110.84 E.04086
G1 X124.785 Y110.935 E.04062
G1 X123.923 Y110.84 E.02719
G1 X122.675 Y110.465 E.04086
G1 X121.546 Y109.831 E.0406
G1 X120.576 Y108.961 E.04085
G1 X120.046 Y108.275 E.02718
G1 X119.454 Y107.123 E.04061
G1 X119.204 Y106.293 E.02718
G1 X119.061 Y104.998 E.04085
G1 X119.125 Y104.133 E.0272
G1 X119.452 Y102.88 E.0406
G1 X120.048 Y101.721 E.04086
G1 X120.835 Y100.776 E.03856
M204 S1000
G1 X121.122 Y101.015 F10800
M204 S800
G1 F1153
G1 X121.128 Y101.007 E.00031
G1 X122.09 Y100.261 E.03817
G1 X122.839 Y99.875 E.02642
G1 X123.974 Y99.533 E.03717
G1 X125.141 Y99.438 E.03671
G1 X126.026 Y99.533 E.02791
G1 X127.161 Y99.875 E.03717
G1 X127.884 Y100.244 E.02545
G1 X128.872 Y101.007 E.03914
G1 X129.412 Y101.613 E.02545
G1 X130.029 Y102.625 E.03716
G1 X130.432 Y103.806 E.03913
M73 Q5 S3
G1 X130.562 Y104.984 E.03716
G1 X130.425 Y106.225 E.03915
G1 X130.189 Y107.002 E.02546
G1 X129.647 Y108.056 E.03716
G1 X128.849 Y109.015 E.03912
M73 P5 R3
G1 X128.223 Y109.533 E.02548
G1 X127.19 Y110.113 E.03715
G1 X125.995 Y110.472 E.03912
G1 X124.813 Y110.559 E.03716
G1 X124.005 Y110.472 E.02548
G1 X122.81 Y110.113 E.03912
G1 X121.777 Y109.533 E.03715
G1 X120.847 Y108.7 E.03915
G1 X120.353 Y108.056 E.02545
G1 X119.811 Y107.002 E.03716
G1 X119.575 Y106.225 E.02546
G1 X119.438 Y104.984 E.03915
G1 X119.5 Y104.174 E.02547
G1 X119.799 Y103.028 E.03713
G1 X120.37 Y101.918 E.03914
G1 X121.083 Y101.061 E.03495
M204 S1000
G1 X121.37 Y101.3 F10800
M204 S800
G1 F1153
G1 X121.38 Y101.288 E.00049
G1 X122.298 Y100.576 E.03643
G1 X122.999 Y100.216 E.02471
G1 X124.029 Y99.907 E.03372
G1 X125.127 Y99.815 E.03455
G1 X125.971 Y99.907 E.02662
G1 X127.001 Y100.216 E.03372
G1 X127.676 Y100.559 E.02374
G1 X128.62 Y101.288 E.0374
G1 X129.122 Y101.855 E.02374
G1 X129.682 Y102.772 E.03369
G1 X130.067 Y103.902 E.03743
G1 X130.185 Y104.97 E.03369
G1 X130.055 Y106.156 E.03741
G1 X129.832 Y106.88 E.02375
G1 X129.341 Y107.836 E.0337
G1 X128.577 Y108.753 E.03742
G1 X127.993 Y109.234 E.02372
G1 X127.055 Y109.76 E.03372
G1 X125.913 Y110.104 E.0374
G1 X124.84 Y110.183 E.03373
G1 X124.087 Y110.104 E.02374
G1 X122.945 Y109.76 E.0374
M73 Q6 S3
G1 X122.274 Y109.411 E.02371
G1 X121.423 Y108.753 E.03373
G1 X120.914 Y108.192 E.02375
G1 X120.293 Y107.174 E.03739
G1 X119.945 Y106.156 E.03373
G1 X119.815 Y104.97 E.03741
M73 P6 R3
G1 X119.933 Y103.902 E.03369
G1 X120.281 Y102.859 E.03447
G1 X120.692 Y102.114 E.02668
G1 X121.332 Y101.346 E.03135
M204 S1000
;WIPE_START
G1 F8640
G1 X121.37 Y101.3 E-.01378
G1 X121.38 Y101.288 E-.00361
G1 X122.298 Y100.576 E-.26825
G1 X122.999 Y100.216 E-.18196
G1 X124.029 Y99.907 E-.2483
G1 X124.392 Y99.876 E-.0841
;WIPE_END
G1 Z.6 F720
; printing object ButtonPress.STL id:0 copy 0
G1 X124.219 Y102.958 F10800
G1 Z.2 F720
G1 E.8 F2100
M204 S800
;TYPE:Perimeter
;WIDTH:0.419999
G1 F1153
G1 X124.509 Y102.845 E.00976
G1 X125.007 Y102.791 E.01571
G1 X125.49 Y102.845 E.01524
G1 X126.082 Y103.072 E.01988
G1 X126.592 Y103.466 E.02021
G1 X126.966 Y103.989 E.02016
G1 X127.174 Y104.6 E.02024
G1 X127.198 Y105.242 E.02014
G1 X127.035 Y105.865 E.02019
G1 X126.699 Y106.414 E.02018
G1 X126.22 Y106.844 E.02018
G1 X125.637 Y107.117 E.02018
G1 X125 Y107.211 E.02019
G1 X124.363 Y107.117 E.02019
G1 X123.78 Y106.844 E.02018
G1 X123.301 Y106.414 E.02018
G1 X122.965 Y105.865 E.02018
G1 X122.802 Y105.242 E.02019
G1 X122.826 Y104.598 E.02021
G1 X123.034 Y103.989 E.02018
G1 X123.408 Y103.466 E.02016
G1 X123.906 Y103.08 E.01976
G1 X124.163 Y102.98 E.00865
M204 S1000
G1 X124.081 Y102.598 F10800
M204 S800
;TYPE:External perimeter
G1 F1153
G1 X124.434 Y102.474 E.01173
G1 X125.008 Y102.412 E.0181
G1 X125.29 Y102.443 E.0089
G1 X125.765 Y102.534 E.01516
G1 X126.267 Y102.742 E.01704
G1 X126.725 Y103.079 E.01783
G1 X127.106 Y103.494 E.01766
G1 X127.375 Y103.986 E.01758
G1 X127.546 Y104.53 E.01788
G1 X127.573 Y105.283 E.02362
G1 X127.444 Y105.834 E.01774
G1 X127.21 Y106.349 E.01774
G1 X126.859 Y106.792 E.01772
G1 X126.428 Y107.159 E.01775
G1 X125.922 Y107.412 E.01774
G1 X125.377 Y107.561 E.01772
G1 X124.811 Y107.575 E.01775
G1 X124.254 Y107.479 E.01772
G1 X123.736 Y107.251 E.01775
G1 X123.272 Y106.928 E.01773
G1 X122.9 Y106.502 E.01773
G1 X122.617 Y106.013 E.01771
G1 X122.461 Y105.468 E.01777
G1 X122.413 Y104.905 E.01772
G1 X122.502 Y104.346 E.01775
M73 Q7 S3
G1 X122.698 Y103.816 E.01772
G1 X123.017 Y103.346 E.01781
G1 X123.418 Y102.951 E.01765
G1 X123.923 Y102.654 E.01837
G1 X124.025 Y102.618 E.00339
M204 S1000
;WIPE_START
G1 F8640
G1 X124.081 Y102.598 E-.01373
G1 X124.434 Y102.474 E-.08639
G1 X125.008 Y102.412 E-.13331
G1 X125.29 Y102.443 E-.06551
G1 X125.765 Y102.534 E-.11167
G1 X126.267 Y102.742 E-.12547
G1 X126.725 Y103.079 E-.1313
G1 X127.106 Y103.494 E-.13008
G1 X127.111 Y103.504 E-.00254
;WIPE_END
G1 Z.6 F720
G1 X127.058 Y104.92 F10800
M73 P7 R3
G1 Z.2 F720
G1 E.8 F2100
M204 S800
;TYPE:Solid infill
;WIDTH:0.420511
G1 F1153
G1 X125.282 Y103.144 E.07886
G1 X125.007 Y103.113 E.00869
G1 X124.746 Y103.142 E.00824
G1 X126.868 Y105.264 E.09422
G1 X126.828 Y105.478 E.00684
G1 X126.757 Y105.687 E.00693
G1 X124.312 Y103.242 E.10856
G1 X123.963 Y103.427 E.0124
G1 X126.574 Y106.038 E.11593
G1 X126.452 Y106.209 E.0066
G1 X126.334 Y106.332 E.00535
G1 X123.667 Y103.665 E.11842
G1 X123.64 Y103.689 E.00113
G1 X123.427 Y103.959 E.0108
G1 X126.043 Y106.575 E.11616
G1 X125.688 Y106.754 E.01248
G1 X123.245 Y104.311 E.10847
G1 X123.134 Y104.734 E.01373
G1 X125.27 Y106.87 E.09484
G1 X125 Y106.889 E.0085
G1 X124.736 Y106.87 E.00831
G1 X122.948 Y105.082 E.07939
M204 S1000
M106 S84.15
;LAYER_CHANGE
;Z:0.4
;HEIGHT:0.2
;BEFORE_LAYER_CHANGE
G92 E0.0
;0.4


;WIPE_START
G1 F8640
G1 X124.736 Y106.87 E-.58386
G1 X125 Y106.889 E-.06112
M73 Q8 S3
G1 X125.27 Y106.87 E-.0625
G1 X124.987 Y106.587 E-.09252
;WIPE_END
G1 Z.4 F720
;AFTER_LAYER_CHANGE
;0.4
M104 S210 ; set temperature
; stop printing object ButtonPress.STL id:0 copy 0
G1 Z.8
G1 X118.743 Y105.544 F10800
G1 Z.4 F720
G1 E.8 F2100
M73 P8 R3
;TYPE:Skirt/Brim
;WIDTH:0.42
G1 F1113
G1 X118.684 Y105.012 E.01678
G1 X118.838 Y103.615 E.04407
G1 X119.105 Y102.733 E.02889
G1 X119.726 Y101.525 E.04259
G1 X120.625 Y100.445 E.04406
G1 X121.674 Y99.632 E.04161
G1 X122.519 Y99.192 E.02987
G1 X123.864 Y98.787 E.04404
G1 X125.168 Y98.684 E.04101
G1 X126.136 Y98.787 E.03052
G1 X127.481 Y99.192 E.04404
G1 X128.3 Y99.615 E.0289
G1 X129.375 Y100.445 E.04258
G1 X129.992 Y101.131 E.02893
G1 X130.723 Y102.33 E.04403
G1 X131.162 Y103.615 E.04258
G1 X131.316 Y105.012 E.04407
G1 X131.167 Y106.362 E.04259
G1 X130.903 Y107.245 E.0289
G1 X130.261 Y108.494 E.04403
G1 X129.392 Y109.538 E.04259
G1 X128.28 Y110.397 E.04406
G1 X127.05 Y110.974 E.0426
G1 X126.159 Y111.208 E.02888
G1 X124.758 Y111.311 E.04405
G1 X123.414 Y111.113 E.0426
G1 X122.541 Y110.817 E.0289
G1 X121.316 Y110.13 E.04404
G1 X120.304 Y109.223 E.04261
G1 X119.739 Y108.494 E.02892
G1 X119.097 Y107.245 E.04403
G1 X118.833 Y106.362 E.0289
M73 Q9 S3
G1 X118.75 Y105.604 E.02391
G1 X119.123 Y105.563 F10800
G1 F1113
G1 X119.061 Y104.998 E.01782
G1 X119.125 Y104.133 E.0272
G1 X119.452 Y102.88 E.0406
G1 X120.048 Y101.721 E.04086
M73 P9 R3
G1 X120.877 Y100.726 E.04061
G1 X121.882 Y99.947 E.03987
G1 X122.679 Y99.533 E.02816
G1 X123.919 Y99.16 E.0406
G1 X125.154 Y99.061 E.03885
G1 X126.081 Y99.16 E.02923
G1 X127.321 Y99.533 E.0406
G1 X128.092 Y99.93 E.02719
G1 X129.123 Y100.726 E.04084
G1 X129.952 Y101.721 E.04061
G1 X130.535 Y102.852 E.0399
G1 X130.797 Y103.711 E.02816
G1 X130.939 Y104.998 E.0406
G1 X130.796 Y106.293 E.04085
G1 X130.546 Y107.123 E.02718
G1 X129.954 Y108.275 E.04061
G1 X129.12 Y109.277 E.04088
G1 X128.454 Y109.831 E.02716
G1 X127.325 Y110.465 E.0406
G1 X126.077 Y110.84 E.04086
G1 X124.785 Y110.935 E.04062
G1 X123.923 Y110.84 E.02719
G1 X122.675 Y110.465 E.04086
G1 X121.546 Y109.831 E.0406
G1 X120.576 Y108.961 E.04085
G1 X120.046 Y108.275 E.02718
G1 X119.454 Y107.123 E.04061
G1 X119.204 Y106.293 E.02718
G1 X119.13 Y105.622 E.02117
G1 X119.504 Y105.581 F10800
G1 F1113
G1 X119.438 Y104.984 E.01883
G1 X119.5 Y104.174 E.02547
G1 X119.799 Y103.028 E.03713
G1 X120.37 Y101.918 E.03914
G1 X121.128 Y101.007 E.03716
G1 X122.09 Y100.261 E.03817
M73 Q10 S3
G1 X122.839 Y99.875 E.02642
G1 X123.974 Y99.533 E.03717
G1 X125.141 Y99.438 E.03671
G1 X126.026 Y99.533 E.02791
G1 X127.161 Y99.875 E.03717
M73 P10 R3
G1 X127.884 Y100.244 E.02545
G1 X128.872 Y101.007 E.03914
G1 X129.412 Y101.613 E.02545
G1 X130.029 Y102.625 E.03716
G1 X130.432 Y103.806 E.03913
G1 X130.562 Y104.984 E.03716
G1 X130.425 Y106.225 E.03915
G1 X130.189 Y107.002 E.02546
G1 X129.647 Y108.056 E.03716
G1 X128.849 Y109.015 E.03912
G1 X128.223 Y109.533 E.02548
G1 X127.19 Y110.113 E.03715
G1 X125.995 Y110.472 E.03912
G1 X124.813 Y110.559 E.03716
G1 X124.005 Y110.472 E.02548
G1 X122.81 Y110.113 E.03912
G1 X121.777 Y109.533 E.03715
G1 X120.847 Y108.7 E.03915
G1 X120.353 Y108.056 E.02545
G1 X119.811 Y107.002 E.03716
G1 X119.575 Y106.225 E.02546
G1 X119.51 Y105.641 E.01842
G1 X119.884 Y105.6 F10800
G1 F1113
G1 X119.815 Y104.97 E.01987
G1 X119.933 Y103.902 E.03369
G1 X120.281 Y102.859 E.03447
G1 X120.692 Y102.114 E.02668
G1 X121.38 Y101.288 E.03371
G1 X122.298 Y100.576 E.03643
G1 X122.999 Y100.216 E.02471
G1 X124.029 Y99.907 E.03372
G1 X125.127 Y99.815 E.03455
G1 X125.971 Y99.907 E.02662
G1 X127.001 Y100.216 E.03372
G1 X127.676 Y100.559 E.02374
G1 X128.62 Y101.288 E.0374
G1 X129.122 Y101.855 E.02374
G1 X129.682 Y102.772 E.03369
G1 X130.067 Y103.902 E.03743
M73 Q11 S3
G1 X130.185 Y104.97 E.03369
G1 X130.055 Y106.156 E.03741
G1 X129.832 Y106.88 E.02375
G1 X129.341 Y107.836 E.0337
G1 X128.577 Y108.753 E.03742
M73 P11 R3
G1 X127.993 Y109.234 E.02372
G1 X127.055 Y109.76 E.03372
G1 X125.913 Y110.104 E.0374
G1 X124.84 Y110.183 E.03373
G1 X124.087 Y110.104 E.02374
G1 X122.945 Y109.76 E.0374
G1 X122.274 Y109.411 E.02371
G1 X121.423 Y108.753 E.03373
G1 X120.914 Y108.192 E.02375
G1 X120.293 Y107.174 E.03739
G1 X119.945 Y106.156 E.03373
G1 X119.891 Y105.659 E.01567
;WIPE_START
G1 F8640
G1 X119.884 Y105.6 E-.01372
G1 X119.815 Y104.97 E-.14634
G1 X119.933 Y103.902 E-.2481
G1 X120.281 Y102.859 E-.25388
G1 X120.57 Y102.336 E-.13796
;WIPE_END
G1 Z.8 F720
; printing object ButtonPress.STL id:0 copy 0
G1 X124.161 Y102.806 F10800
G1 Z.4 F720
G1 E.8 F2100
M204 S800
;TYPE:Perimeter
;WIDTH:0.449999
G1 F1113
G1 X124.472 Y102.694 E.01119
G1 X125.042 Y102.637 E.01939
G1 X125.524 Y102.693 E.01642
G1 X126.009 Y102.867 E.01744
G1 X126.446 Y103.127 E.01721
G1 X126.802 Y103.476 E.01687
G1 X127.093 Y103.899 E.01738
G1 X127.329 Y104.593 E.02481
G1 X127.352 Y105.259 E.02256
G1 X127.231 Y105.768 E.01771
G1 X127.02 Y106.233 E.01728
G1 X126.697 Y106.64 E.01759
G1 X126.306 Y106.973 E.01738
G1 X125.841 Y107.205 E.01759
G1 X125.345 Y107.341 E.01741
G1 X124.827 Y107.354 E.01754
G1 X124.318 Y107.266 E.01748
G1 X123.844 Y107.057 E.01753
G1 X123.421 Y106.762 E.01746
G1 X123.08 Y106.372 E.01754
G1 X122.822 Y105.925 E.01747
G1 X122.679 Y105.428 E.01751
G1 X122.635 Y104.914 E.01746
G1 X122.717 Y104.401 E.01758
G1 X122.896 Y103.918 E.01744
G1 X123.189 Y103.487 E.01764
G1 X123.554 Y103.127 E.01735
G1 X123.988 Y102.868 E.01711
G1 X124.104 Y102.826 E.00418
M204 S1000
G1 X124.015 Y102.425 F10800
M204 S800
;TYPE:External perimeter
G1 F1113
G1 X124.392 Y102.293 E.01352
G1 X125.045 Y102.228 E.02221
G1 X125.606 Y102.293 E.01912
G1 X126.182 Y102.498 E.02069
G1 X126.696 Y102.804 E.02025
G1 X127.155 Y103.264 E.022
G1 X127.463 Y103.725 E.01877
M73 Q12 S3
G1 X127.729 Y104.504 E.02786
G1 X127.758 Y105.303 E.02706
G1 X127.617 Y105.9 E.02076
G1 X127.368 Y106.445 E.02028
G1 X126.99 Y106.923 E.02063
G1 X126.531 Y107.314 E.02041
G1 X125.987 Y107.585 E.02057
G1 X125.404 Y107.745 E.02046
M73 P12 R3
G1 X124.797 Y107.76 E.02055
G1 X124.201 Y107.657 E.02047
G1 X123.645 Y107.412 E.02057
G1 X123.149 Y107.066 E.02047
G1 X122.749 Y106.609 E.02056
G1 X122.447 Y106.085 E.02047
G1 X122.279 Y105.502 E.02054
G1 X122.227 Y104.899 E.02049
G1 X122.323 Y104.299 E.02057
G1 X122.533 Y103.731 E.0205
G1 X122.876 Y103.227 E.02064
G1 X123.304 Y102.804 E.02037
G1 X123.853 Y102.482 E.02154
G1 X123.959 Y102.445 E.0038
M204 S1000
;WIPE_START
G1 F8640
G1 X124.015 Y102.425 E-.01373
G1 X124.392 Y102.293 E-.09223
G1 X125.045 Y102.228 E-.15152
G1 X125.606 Y102.293 E-.1304
G1 X126.182 Y102.498 E-.14117
G1 X126.696 Y102.804 E-.13812
G1 X127.102 Y103.211 E-.13283
;WIPE_END
G1 Z.8 F720
G1 X123.074 Y103.998 F10800
G1 Z.4 F720
G1 E.8 F2100
;TYPE:Solid infill
;WIDTH:0.38292
G1 F1113
G1 X123.473 Y103.528 E.01743
G1 X123.942 Y103.115 E.01767
;WIDTH:0.41646
G1 X124.139 Y103.106 E.00613
;WIDTH:0.449999
G1 X124.335 Y103.097 E.00664
G1 X123.093 Y104.339 E.05945
G1 X122.986 Y105.022 E.0234
G1 X125.02 Y102.987 E.09739
G1 X125.528 Y103.056 E.01735
G1 X123.053 Y105.53 E.11845
